img/service-delivery-proccess__02.svg

<svg width="38" height="38" viewBox="0 0 38 38" fill="none" xmlns="http://www.w3.org/2000/svg">
<g clip-path="url(#clip0)">
<path d="M8.27269 14.6497C8.41069 14.5117 8.49013 14.3201 8.49013 14.125C8.49013 13.929 8.41069 13.7383 8.27269 13.6002C8.13382 13.4614 7.94306 13.3828 7.74794 13.3828C7.55196 13.3828 7.36119 13.4614 7.22232 13.6002C7.08432 13.7383 7.00488 13.929 7.00488 14.125C7.00488 14.3201 7.08432 14.5117 7.22232 14.6497C7.36119 14.7877 7.55196 14.8672 7.74794 14.8672C7.94306 14.8672 8.13382 14.7877 8.27269 14.6497Z" fill="white"/>
<path d="M35.062 9.71597C37.4062 7.3717 38.4801 4.01968 37.9345 0.749408C37.8823 0.436878 37.6373 0.191897 37.3245 0.139712C34.0545 -0.406202 30.7025 0.667652 28.3582 3.01192L23.1058 8.26436L20.7232 8.03735C20.7931 7.81643 20.8299 7.58392 20.8299 7.3459C20.8299 6.73678 20.5928 6.1642 20.1623 5.73367C19.7314 5.30314 19.1588 5.0657 18.55 5.0657C17.9409 5.0657 17.3683 5.30285 16.9378 5.73367L15.1644 7.5068L12.8111 7.28241C13.0717 6.49035 12.8882 5.58291 12.2597 4.95437C11.3705 4.06548 9.9244 4.06548 9.03522 4.95437L7.23861 6.75099L4.1965 6.46078C3.97588 6.43991 3.75757 6.51818 3.60101 6.67474L0.291606 9.98415C0.124324 10.1514 0.0469157 10.388 0.0828655 10.6217C0.118525 10.8553 0.263484 11.0577 0.473094 11.167L4.77257 13.4095C4.88216 13.4666 4.99957 13.4939 5.11525 13.4939C5.38284 13.4939 5.64145 13.3483 5.77394 13.0947C5.96355 12.7314 5.82265 12.2829 5.45909 12.0933L2.05633 10.3187L4.4035 7.97154L21.7446 9.62581L14.5405 16.83L10.7237 14.8394C10.3604 14.6498 9.91222 14.7907 9.72262 15.1542C9.53301 15.5178 9.67391 15.966 10.0375 16.1556L13.4399 17.9302L12.2745 19.096C11.1136 20.2568 10.0972 21.5272 9.23382 22.8863L2.77852 23.0055C2.58659 23.009 2.40336 23.087 2.26739 23.2226L0.541805 24.9482C0.360316 25.1297 0.285518 25.3921 0.344081 25.6423C0.402644 25.8922 0.586452 26.0943 0.829693 26.1763L6.7901 28.1863C6.49642 29.1407 6.26622 30.1201 6.10155 31.1197C6.0627 31.3557 6.14011 31.5957 6.30913 31.7651C6.44945 31.9054 6.63877 31.9825 6.83388 31.9825C6.87389 31.9825 6.91419 31.9793 6.95449 31.9726C7.95412 31.808 8.93346 31.5775 9.88787 31.2841L11.8979 37.2445C11.9799 37.4877 12.1817 37.6713 12.4319 37.7298C12.4879 37.7432 12.5447 37.7495 12.6009 37.7495C12.7955 37.7495 12.9851 37.673 13.126 37.5321L14.8513 35.8068C14.9872 35.6708 15.0652 35.487 15.0684 35.2948L15.1809 28.8444C16.5429 27.9802 17.8154 26.9623 18.9779 25.7997L20.1437 24.6342L26.9069 37.6008C27.0162 37.8104 27.2188 37.9554 27.4522 37.9913C27.4899 37.9971 27.5276 38 27.565 38C27.7604 38 27.9494 37.9226 28.0898 37.7826L31.3995 34.4729C31.5557 34.3163 31.6343 34.098 31.6134 33.8777L31.3232 30.8353L33.1198 29.0387C34.0087 28.1498 34.0087 26.7034 33.1198 25.8142C32.491 25.1857 31.5835 25.0022 30.7915 25.2628L30.5671 22.9095L32.3405 21.1361C32.771 20.7056 33.0082 20.133 33.0082 19.5242C33.0082 18.9151 32.7713 18.3425 32.3405 17.9119C31.91 17.4811 31.3374 17.244 30.7283 17.244C30.4903 17.244 30.2578 17.2808 30.0368 17.3509L29.8095 14.9684L35.062 9.71597ZM17.9876 6.78317C18.1378 6.63299 18.3375 6.55036 18.55 6.55036C18.7625 6.55036 18.9623 6.63299 19.1125 6.78346C19.2629 6.93364 19.3456 7.13339 19.3456 7.3459C19.3456 7.54797 19.2699 7.73816 19.1333 7.88572L17.081 7.68974L17.9876 6.78317ZM10.085 6.00416C10.3952 5.69395 10.9 5.69395 11.2102 6.00416C11.5201 6.31408 11.5201 6.81883 11.2102 7.12904L11.2093 7.12991L9.15525 6.93393L10.085 6.00416ZM2.43757 25.152L3.10525 24.4841L8.36233 24.3872C7.95238 25.1625 7.58941 25.9621 7.27485 26.7831L2.43757 25.152ZM13.5895 34.9692L12.9221 35.6366L11.2908 30.7993C12.1098 30.4857 12.9076 30.1235 13.6814 29.7148L13.5895 34.9692ZM17.9284 24.7502C16.7618 25.9168 15.4766 26.9272 14.0966 27.7712C14.0743 27.783 14.0525 27.7964 14.0314 27.8106C12.106 28.9778 9.99746 29.8209 7.7677 30.3065C8.60731 26.4494 10.515 22.9548 13.324 20.1457L29.408 4.06171C31.0695 2.39991 33.3228 1.48435 35.6378 1.48435C35.939 1.48435 36.2411 1.49971 36.5429 1.53103C36.8154 4.15536 35.8903 6.78839 34.0125 8.66618L19.8132 22.8655C19.8115 22.8672 19.8097 22.8689 19.808 22.8707L17.9284 24.7502ZM30.9452 26.864C31.2554 26.5538 31.7598 26.5541 32.07 26.864C32.3802 27.1742 32.3802 27.679 32.07 27.9892L31.1403 28.9189L30.9443 26.8649L30.9452 26.864ZM30.7283 18.7286C30.9408 18.7286 31.1406 18.8113 31.291 18.9617C31.4412 19.1119 31.5238 19.3117 31.5238 19.5242C31.5238 19.7367 31.4412 19.9364 31.2907 20.0866L30.3842 20.9932L30.1885 18.9409C30.336 18.8043 30.5262 18.7286 30.7283 18.7286ZM30.1024 33.6707L27.7552 36.0179L21.2439 23.5337L28.4484 16.3296L30.1024 33.6707Z" fill="white"/>
<path d="M24.0395 15.0853C24.3294 14.7957 24.3294 14.3257 24.0395 14.0358C23.7496 13.7459 23.2796 13.7459 22.9897 14.0358L17.069 19.9565C16.7791 20.2461 16.7791 20.7161 17.069 21.006C17.214 21.151 17.4039 21.2234 17.5938 21.2234C17.7839 21.2234 17.9738 21.151 18.1188 21.006L24.0395 15.0853Z" fill="white"/>
<path d="M25.6055 13.2118C25.7954 13.2118 25.9853 13.1393 26.1302 12.9943L26.1366 12.9876C26.4265 12.698 26.4265 12.2281 26.1366 11.9381C25.847 11.6482 25.377 11.6482 25.0871 11.9381L25.0807 11.9445C24.7908 12.2344 24.7908 12.7044 25.0807 12.9943C25.2257 13.1393 25.4156 13.2118 25.6055 13.2118Z" fill="white"/>
</g>
<defs>
<clipPath id="clip0">
<rect width="38" height="38" fill="white"/>
</clipPath>
</defs>
</svg>

<svg width="38" height="38" fill="none" xmlns="http://www.w3.org/2000/svg"><g clip-path="url(#clip0)" fill="#fff"><path d="M8.273 14.65a.748.748 0 00.217-.525.746.746 0 00-1.268-.525.747.747 0 00-.217.525c0 .195.08.387.217.525a.75.75 0 00.526.217.75.75 0 00.525-.217z"/><path d="M35.062 9.716A10.307 10.307 0 0037.935.749a.742.742 0 00-.61-.61 10.305 10.305 0 00-8.967 2.873l-5.252 5.252-2.383-.227a2.29 2.29 0 00-.56-2.303 2.267 2.267 0 00-1.613-.668 2.26 2.26 0 00-1.612.668l-1.774 1.773-2.353-.225c.26-.792.077-1.7-.551-2.328a2.283 2.283 0 00-3.225 0L7.24 6.751l-3.042-.29a.743.743 0 00-.596.214l-3.31 3.31a.742.742 0 00.182 1.182l4.3 2.242a.74.74 0 001-.314.742.742 0 00-.314-1.002L2.056 10.32l2.348-2.347 17.34 1.654-7.204 7.204-3.816-1.99a.742.742 0 10-.687 1.316l3.403 1.774-1.165 1.166a22.165 22.165 0 00-3.041 3.79l-6.455.12a.743.743 0 00-.512.217L.542 24.948a.742.742 0 00.288 1.228l5.96 2.01a22.29 22.29 0 00-.688 2.934.743.743 0 00.852.853c1-.165 1.98-.395 2.934-.689l2.01 5.96a.742.742 0 001.228.288l1.725-1.725a.742.742 0 00.217-.512l.113-6.45a22.146 22.146 0 003.797-3.045l1.166-1.166 6.763 12.967a.742.742 0 001.183.182l3.31-3.31a.744.744 0 00.213-.595l-.29-3.043 1.797-1.796a2.283 2.283 0 000-3.225 2.283 2.283 0 00-2.328-.551l-.225-2.354 1.773-1.773c.431-.43.668-1.003.668-1.612 0-.609-.237-1.181-.668-1.612a2.284 2.284 0 00-2.304-.561l-.227-2.383 5.253-5.252zM17.988 6.783a.79.79 0 01.562-.233.79.79 0 01.563.233.79.79 0 01.02 1.103l-2.052-.196.907-.907zm-7.903-.779A.797.797 0 0111.21 7.13l-2.055-.195.93-.93zM2.438 25.152l.667-.668 5.257-.097c-.41.776-.773 1.575-1.087 2.396l-4.837-1.631zm11.152 9.817l-.668.668-1.631-4.838a21.838 21.838 0 002.39-1.084l-.091 5.254zm4.338-10.219a20.661 20.661 0 01-3.897 3.06 20.458 20.458 0 01-6.263 2.497 20.459 20.459 0 015.556-10.161L29.408 4.062a8.82 8.82 0 017.135-2.531 8.82 8.82 0 01-2.53 7.135l-14.2 14.2-.005.005-1.88 1.88zm13.017 2.114a.796.796 0 011.125 1.125l-.93.93-.196-2.054.001-.001zm-.217-8.135a.79.79 0 01.563.233c.15.15.233.35.233.562a.789.789 0 01-.233.563l-.907.906-.195-2.052a.79.79 0 01.54-.212zm-.626 14.942l-2.347 2.347-6.511-12.484 7.204-7.204 1.654 17.34z"/><path d="M24.04 15.085a.742.742 0 10-1.05-1.05l-5.921 5.921a.742.742 0 101.05 1.05l5.92-5.92zm1.565-1.873a.74.74 0 00.525-.218l.007-.006a.742.742 0 10-1.05-1.05l-.006.006a.742.742 0 00.524 1.268z"/></g><defs><clipPath id="clip0"><path fill="#fff" d="M0 0h38v38H0z"/></clipPath></defs></svg>
